icons/bridge-filled.svg

<svg width="256" height="256" viewBox="0 0 256 256" fill="none" xmlns="http://www.w3.org/2000/svg">
<path d="M196 0H60C26.8629 0 0 26.8629 0 60V196C0 229.137 26.8629 256 60 256H196C229.137 256 256 229.137 256 196V60C256 26.8629 229.137 0 196 0Z" fill="#000B1D"/>
<path d="M58.1 179.3L58 77.1C58 76.1 58.3 75.6 59 75.5C60.8 75.4 63.6 75.3 67.4 75.3C71.2 75.3 74.8 75.2 79.2 75.1C83.6 75 87.6 75 91.3 75C100.1 75 107.3 75.6 112.5 77.6C116.999 79.0985 121.101 81.594 124.5 84.9C127.177 87.4877 129.2 90.6756 130.4 94.2C131.318 97.0778 131.791 100.079 131.8 103.1C131.768 106.325 131.124 109.515 129.9 112.5C129.02 114.983 127.698 117.286 126 119.3C124.794 120.858 123.341 122.209 121.7 123.3C123.991 124.522 126.138 125.998 128.1 127.7C130.623 129.931 132.665 132.653 134.1 135.7C136.013 139.478 136.974 143.666 136.9 147.9C136.932 154.117 134.969 160.181 131.3 165.2C127.336 170.433 121.958 174.424 115.8 176.7C108.132 179.721 99.9393 181.183 91.7 181H81.1C77.7 181 74.9 181 72 180.9C69.1 180.8 66.7 180.8 64.6 180.7C62.5 180.6 60.7 180.6 59.2 180.6C58.4 180.6 58.1 180.1 58.1 179.3ZM79.8 94L79.9 116.3H90.4C93.3 116.3 96.1 116.4 98.9 116.5C100.915 116.501 102.925 116.702 104.9 117.1C106.306 115.88 107.49 114.425 108.4 112.8C109.476 110.913 110.028 108.772 110 106.6C110.003 103.942 109.162 101.351 107.6 99.2C106.03 97.2907 103.949 95.8685 101.6 95.1C98.2931 94.1159 94.848 93.6768 91.4 93.8H86.7C85.3 93.8 84.4 93.8 83.3 93.9C82.2 94 81.1 94 79.8 94ZM79.9 135V161.8C81.7 161.9 83.1 162 85 162C86.9 162 89 162.1 91.6 162.1C95.5463 162.184 99.4848 161.712 103.3 160.7C106.223 159.986 108.868 158.42 110.9 156.2C112.795 154.11 113.892 151.419 114 148.6C113.911 145.848 112.967 143.192 111.3 141C109.9 138.9 107.3 137.1 103.6 136.1C102.153 135.737 100.683 135.47 99.2 135.3C97.2397 135.1 95.2705 135 93.3 135H79.9Z" fill="white"/>
<path d="M151.2 100.1H168.7C169.174 100.112 169.632 100.272 170.009 100.56C170.386 100.847 170.663 101.246 170.8 101.7C171.213 102.408 171.485 103.189 171.6 104C171.8 105 172 106.1 172.1 107.1C172.2 108.1 172.3 109.8 172.3 111.1C175.289 107.473 178.915 104.423 183 102.1C187.3 99.7001 191.9 99.1001 197.5 99.1001C197.664 99.0778 197.832 99.0888 197.992 99.1323C198.152 99.1759 198.302 99.2512 198.433 99.3538C198.563 99.4564 198.672 99.5842 198.752 99.7296C198.832 99.875 198.883 100.035 198.9 100.2V119.8C198.9 120.6 198.4 120.9 197.3 120.9C193.884 120.685 190.454 120.92 187.1 121.6C184.211 122.196 181.395 123.102 178.7 124.3C176.522 125.159 174.522 126.414 172.8 128V178.7C172.8 179.7 172.4 180.1 171.5 180.1H152.5C152.315 180.131 152.127 180.124 151.945 180.08C151.763 180.036 151.592 179.956 151.442 179.843C151.293 179.731 151.168 179.59 151.074 179.427C150.981 179.265 150.922 179.086 150.9 178.9V123.5C150.9 121.1 150.9 118.6 150.8 116C150.7 113.4 150.7 110.8 150.6 108.2C150.5 105.9 150.3 103.5 150 101.2C149.973 101.082 149.97 100.96 149.991 100.84C150.012 100.721 150.056 100.607 150.121 100.505C150.186 100.403 150.271 100.314 150.37 100.245C150.47 100.175 150.582 100.126 150.7 100.1H151.2Z" fill="white"/>
</svg>

<svg xmlns="http://www.w3.org/2000/svg" width="256" height="256" fill="none"><path fill="#000B1D" d="M196 0H60C26.863 0 0 26.863 0 60v136c0 33.137 26.863 60 60 60h136c33.137 0 60-26.863 60-60V60c0-33.137-26.863-60-60-60"/><path fill="#fff" d="M58.1 179.3 58 77.1c0-1 .3-1.5 1-1.6 1.8-.1 4.6-.2 8.4-.2s7.4-.1 11.8-.2 8.4-.1 12.1-.1c8.8 0 16 .6 21.2 2.6a31.5 31.5 0 0 1 12 7.3 23.45 23.45 0 0 1 5.9 9.3 29.6 29.6 0 0 1 1.4 8.9 25.4 25.4 0 0 1-1.9 9.4 21.9 21.9 0 0 1-3.9 6.8 18.1 18.1 0 0 1-4.3 4 34.7 34.7 0 0 1 6.4 4.4 24.8 24.8 0 0 1 6 8 26 26 0 0 1 2.8 12.2 29.06 29.06 0 0 1-5.6 17.3 34.4 34.4 0 0 1-15.5 11.5 62 62 0 0 1-24.1 4.3H81.1c-3.4 0-6.2 0-9.1-.1s-5.3-.1-7.4-.2-3.9-.1-5.4-.1c-.8 0-1.1-.5-1.1-1.3M79.8 94l.1 22.3h10.5c2.9 0 5.7.1 8.5.2a30.5 30.5 0 0 1 6 .6 16.1 16.1 0 0 0 3.5-4.3 12.2 12.2 0 0 0 1.6-6.2 12.57 12.57 0 0 0-2.4-7.4 13 13 0 0 0-6-4.1 31.8 31.8 0 0 0-10.2-1.3h-4.7c-1.4 0-2.3 0-3.4.1s-2.2.1-3.5.1m.1 41v26.8c1.8.1 3.2.2 5.1.2s4 .1 6.6.1a42 42 0 0 0 11.7-1.4 15.2 15.2 0 0 0 7.6-4.5 12 12 0 0 0 3.1-7.6 13.26 13.26 0 0 0-2.7-7.6c-1.4-2.1-4-3.9-7.7-4.9a34 34 0 0 0-4.4-.8c-1.96-.2-3.93-.3-5.9-.3zm71.3-34.9h17.5a2.25 2.25 0 0 1 2.1 1.6c.413.708.685 1.489.8 2.3.2 1 .4 2.1.5 3.1s.2 2.7.2 4a38.6 38.6 0 0 1 10.7-9c4.3-2.4 8.9-3 14.5-3a1.24 1.24 0 0 1 1.4 1.1v19.6c0 .8-.5 1.1-1.6 1.1a39 39 0 0 0-10.2.7 41 41 0 0 0-8.4 2.7 19 19 0 0 0-5.9 3.7v50.7c0 1-.4 1.4-1.3 1.4h-19a1.38 1.38 0 0 1-1.426-.673 1.4 1.4 0 0 1-.174-.527v-55.4c0-2.4 0-4.9-.1-7.5s-.1-5.2-.2-7.8c-.1-2.3-.3-4.7-.6-7a.9.9 0 0 1 .121-.695.92.92 0 0 1 .579-.405z"/></svg>
